ICONS/component-icons/svg/grid.svg

<?xml version="1.0" encoding="UTF-8"?><svg id="widgets" xmlns="http://www.w3.org/2000/svg" width="24" height="24" viewBox="0 0 24 24"><path id="grid" d="M0,0V24H20l4-4V0H0ZM22,19.17l-2.83,2.83H2V2H22V19.17Zm-18-3.17v2h2v2l2-2h3v2l2-2h3v2l2-2,2-2h-2v-3l2-2h-2v-3l2-2h-2v-2h-2v2h-3v-2h-2v2h-3v-2h-2v2h-2v2h2v3h-2v2h2v3h-2Zm12,0h-3v-3h3v3Zm0-8v3h-3v-3h3Zm-8,0h3v3h-3v-3Zm0,5h3v3h-3v-3Z"/></svg>

<?xml version="1.0" encoding="utf-8"?>
<!-- Generator: Adobe Illustrator 24.2.3, SVG Export Plug-In . SVG Version: 6.00 Build 0)  -->
<svg version="1.1" id="Layer_1" xmlns="http://www.w3.org/2000/svg" xmlns:xlink="http://www.w3.org/1999/xlink" x="0px" y="0px"
	 width="24px" height="24px" viewBox="0 0 24 24" enable-background="new 0 0 24 24" xml:space="preserve">
<path d="M0,0v24h20l4-4V0H0z M22,19.2L19.2,22H2V2h20V19.2z M6,20l2-2h3v2l2-2h3v2l4-4h-2v-3l2-2h-2V8l2-2h-2V4h-2v2h-3V4h-2v2H8V4
	H6v2H4v2h2v3H4v2h2v3H4v2h2V20z M13,8h3v3h-3V8z M13,13h3v3h-3V13z M8,8h3v3H8V8z M8,13h3v3H8V13z"/>
</svg>
